packages/kaspersky-hexa-ui-icons/src/iconsSVGs/28x20/FlagCm.svg

<svg width="28" height="20" viewBox="0 0 28 20" fill="none" xmlns="http://www.w3.org/2000/svg">
<g clip-path="url(#clip0_5138_593)">
<rect width="28" height="20" rx="2" fill="white"/>
<mask id="mask0_5138_593" style="mask-type:luminance" maskUnits="userSpaceOnUse" x="0" y="0" width="28" height="20">
<rect width="28" height="20" rx="2" fill="white"/>
</mask>
<g mask="url(#mask0_5138_593)">
<rect x="13.3333" width="14.6667" height="20" fill="url(#paint0_linear_5138_593)"/>
<path fill-rule="evenodd" clip-rule="evenodd" d="M0 20H9.33333V0H0V20Z" fill="#059170"/>
<path fill-rule="evenodd" clip-rule="evenodd" d="M9.33334 20H18.6667V0H9.33334V20Z" fill="#E21A30"/>
<path fill-rule="evenodd" clip-rule="evenodd" d="M18.6667 20H28V0H18.6667V20Z" fill="#FFDC44"/>
<path fill-rule="evenodd" clip-rule="evenodd" d="M14 11.3L12.0407 12.6967L12.7636 10.4017L10.8298 8.96993L13.2359 8.94827L14 6.66666L14.7641 8.94827L17.1702 8.96993L15.2364 10.4017L15.9593 12.6967L14 11.3Z" fill="#FFDC42"/>
</g>
</g>
<defs>
<linearGradient id="paint0_linear_5138_593" x1="13.3333" y1="0" x2="13.3333" y2="20" gradientUnits="userSpaceOnUse">
<stop stop-color="#FFDC44"/>
<stop offset="1" stop-color="#FDD216"/>
</linearGradient>
<clipPath id="clip0_5138_593">
<rect width="28" height="20" fill="white"/>
</clipPath>
</defs>
</svg>

<svg xmlns="http://www.w3.org/2000/svg" width="28" height="20" fill="none" viewBox="0 0 28 20"><g clip-path="url(#a)"><rect width="28" height="20" fill="#fff" rx="2"/><mask id="b" width="28" height="20" x="0" y="0" maskUnits="userSpaceOnUse" style="mask-type:luminance"><rect width="28" height="20" fill="#fff" rx="2"/></mask><g mask="url(#b)"><path fill="url(#c)" d="M13.3333 0H28v20H13.3333z"/><path fill="#059170" fill-rule="evenodd" d="M0 20h9.3333V0H0z" clip-rule="evenodd"/><path fill="#e21a30" fill-rule="evenodd" d="M9.3333 20h9.3334V0H9.3333z" clip-rule="evenodd"/><path fill="#ffdc44" fill-rule="evenodd" d="M18.6667 20H28V0h-9.3333z" clip-rule="evenodd"/><path fill="#ffdc42" fill-rule="evenodd" d="m14 11.3-1.9593 1.3967.7229-2.295-1.9338-1.4318 2.4061-.0216L14 6.6667l.7641 2.2816 2.4061.0216-1.9338 1.4318.7229 2.295z" clip-rule="evenodd"/></g></g><defs><linearGradient id="c" x1="13" x2="13" y1="0" y2="20" gradientUnits="userSpaceOnUse"><stop stop-color="#ffdc44"/><stop offset="1" stop-color="#fdd216"/></linearGradient><clipPath id="a"><path fill="#fff" d="M0 0h28v20H0z"/></clipPath></defs></svg>
